X: 163
T: Gaude virgo mater Christi
N: Derived from Rue2005-Gaude_virgo_mater_Christi.krn
C: Pierre de la Rue
%%abc-version 2.0
%%abcx-abcm2ps-target-version 5.9.1 (29 Sep 2008)
%%abc-creator hum2abc beta
%%abcx-conversion-date 2019/02/17 08:01:16
%%abc-edited-by Jesse Rodin
%%abc-edited-by Jesse Rodin; Chris Gage 01-02-2013
%%abcx-initial-encoding-date 2015/06/16/
%%humdrum-veritas 1631914509
%%humdrum-veritas-data 1634544999
%%linebreak <none>
%%barnumbers 0
L: 1/4
M: 3/1
Q: 1/2=120
%%staves [1 2 3 4]
V: 1 clef=treble
V: 2 clef=treble-8
V: 3 clef=treble-8
V: 4 clef=bass
K: C
[V:1] z12 | 
[V:2] e4e2e4e2 | 
[V:3] z12 | 
[V:4] E,8E,4 | 
[V:1] A4A2A4A2 | 
[V:2] f4f8 | 
[V:3] z12 | 
[V:4] D,4D,2F,4F,2 | 
[V:1] B4B8 | 
[V:2] d4e3fgeg2- | 
[V:3] z12 | 
[V:4] G,4E,8 | 
[V:1] G4A3Bc2c2- | 
[V:2] gfdef2e4e2 | 
[V:3] z12 | 
[V:4] G,4D,2A,3B,CA, | 
[V:1] cBGAB2A2e2f2- | 
[V:2] A2e4f2e2d2 | 
[V:3] z12 | 
[V:4] C3B,G,2F,2C2D2- | 
[V:1] fedcBAA4^G2 | 
[V:2] f2g3fe4d2 | 
[V:3] z12 | 
[V:4] DCB,A,G,2A,2B,4 | 
[V:1] A8z4 | 
[V:2] e4z2e2g2a2- | 
[V:3] c8c4 | 
[V:4] A,8z4 | 
[V:1] e4e2f4f2 | 
[V:2] a2a4a2a3d | 
[V:3] c8c4 | 
[V:4] A,4A,2F,4F,2 | 
[V:1] d2d2e2dcB4 | 
[V:2] d2g4g4g2 | 
[V:3] B8B4 | 
[V:4] G,2G,2E,8 | 
[V:1] A4z2A4A2 | 
[V:2] a2e2f3ge4 | 
[V:3] c3Bc2d4^c2 | 
[V:4] A,3G,F,2D,2A,4 | 
[V:1] B2A4d4cB | 
[V:2] d4z2a2a2a2 | 
[V:3] d4z2d2d2d2 | 
[V:4] z2D,2D,4D,4 | 
[V:1] c4A2c3de2 | 
[V:2] a4e2a3g3 | 
[V:3] e8c4 | 
[V:4] A,6G,F,E,4 | 
[V:1] f8d4 | 
[V:2] f6eda4 | 
[V:3] d8f4 | 
[V:4] D,8D,4 | 
[V:1] e3dBcd3cA2 | 
[V:2] z12 | 
[V:3] e2g3fdef4 | 
[V:4] A,2E,2G,3F,D,2A,2- | 
[V:1] e2f3ecde2c2 | 
[V:2] a4a2a3ge2 | 
[V:3] e2d2f4e3d | 
[V:4] A,2D,4A,3B,C2 | 
[V:1] d3cBAA4^G2 | 
[V:2] d2g3fede4 | 
[V:3] Bcd3cBAB4 | 
[V:4] G,6A,2E,4 | 
[V:1] A12 | 
[V:2] e12 | 
[V:3] A4z2A3Bcd | 
[V:4] A,12 | 
[V:1] z12 | 
[V:2] z12 | 
[V:3] e2f2d4c2d2- | 
[V:4] z2D,3E,F,G,A,2B,2 | 
[V:1] z12 | 
[V:2] z12 | 
[V:3] dcB2A2d2c2f2- | 
[V:4] G,4F,2G,F,E,2D,2- | 
[V:1] z12 | 
[V:2] z12 | 
[V:3] f2e2d2gfede2- | 
[V:4] D,2A,2_B,2B,A,G,F,CB, | 
[V:1] z12 | 
[V:2] z12 | 
[V:3] e2edcBe4d2 | 
[V:4] A,G,A,2A,G,F,E,F,4 | 
[V:1] G3ABcB4G2 | 
[V:2] z12 | 
[V:3] e12 | 
[V:4] E,12 | 
[V:1] A2G3ABcB2A2- | 
[V:2] c3defe4cd | 
[V:3] z12 | 
[V:4] z12 | 
[V:1] A2G2F4E4 | 
[V:2] efe4d2e4 | 
[V:3] z12 | 
[V:4] z12 | 
[V:1] z12 | 
[V:2] z12 | 
[V:3] e8e4 | 
[V:4] E,3F,G,2A,3G,F,E, | 
[V:1] A3Bc2d3cBA | 
[V:2] z12 | 
[V:3] f8f4 | 
[V:4] D,4z4D,4 | 
[V:1] G3AB2c3BAG | 
[V:2] B4B2A4a2- | 
[V:3] e8c4 | 
[V:4] E,3F,G,2A,3G,F,E, | 
[V:1] FDF3GE2D4 | 
[V:2] agfedcc4B2 | 
[V:3] d3Ad2e2f4 | 
[V:4] D,4z4z4 | 
[V:1] C8G4 | 
[V:2] c4z4G4 | 
[V:3] e8d4 | 
[V:4] A,8_B,4 | 
[V:1] A2c4d2e4 | 
[V:2] c3de2A4G2 | 
[V:3] e4A2d4^c2 | 
[V:4] A,2A,4G,F,E,4 | 
[V:1] A2fedcc4B2 | 
[V:2] A4a6g2 | 
[V:3] d3efedcd4 | 
[V:4] D,6F,4G,2 | 
[V:1] c4z2c4c2 | 
[V:2] e2f2g2a3ge2 | 
[V:3] c4B2A4G2 | 
[V:4] A,4G,2F,2E,4 | 
[V:1] d4f8 | 
[V:2] f8a4 | 
[V:3] A12 | 
[V:4] D,8F,4 | 
[V:1] e2dcdcBAB4 | 
[V:2] g2b3aa4^g2 | 
[V:3] z12 | 
[V:4] C,2G,2A,4E,4 | 
[V:1] A12 | 
[V:2] a8z4 | 
[V:3] z2c4c2d2f2- | 
[V:4] A,4z2F,4F,2- | 
[V:1] z12 | 
[V:2] z12 | 
[V:3] f2e4d2d3^c | 
[V:4] F,2G,3F,E,D,E,4 | 
[V:1] z2A4_Bcdef2- | 
[V:2] z4z2f2f2de | 
[V:3] d12 | 
[V:4] D,12 | 
[V:1] f2e4d2d3^c | 
[V:2] fdg3fede4 | 
[V:3] z12 | 
[V:4] z12 | 
[V:1] d12 | 
[V:2] d12 | 
[V:3] f4f2d4f2 | 
[V:4] z12 | 
[V:1] z12 | 
[V:2] z12 | 
[V:3] e2e2A4z2A2 | 
[V:4] C4C2A,4C2 | 
[V:1] z12 | 
[V:2] z12 | 
[V:3] d2d2e2g3fed | 
[V:4] B,2B,2E,4z2G,2 | 
[V:1] z12 | 
[V:2] z12 | 
[V:3] c4z2c2d2f2- | 
[V:4] A,2C3B,A,G,F,3G, | 
[V:1] z12 | 
[V:2] z12 | 
[V:3] f2e4dcB4 | 
[V:4] A,B,C3B,A,4^G,2 | 
[V:1] c3d/e/f2e4d2 | 
[V:2] a4agfef4 | 
[V:3] A12 | 
[V:4] A,8D,4 | 
[V:1] e4edcBc4 | 
[V:2] e3f/g/a2g4^f2 | 
[V:3] z12 | 
[V:4] A,3B,CB,A,G,A,4 | 
[V:1] B3c/d/e2d4^c2 | 
[V:2] g4gfede4 | 
[V:3] z12 | 
[V:4] G,8z4 | 
[V:1] d4dcBAB4 | 
[V:2] d3e/f/g2f4e2 | 
[V:3] z12 | 
[V:4] G,3A,B,A,G,F,G,4 | 
[V:1] A8z4 | 
[V:2] f2f3edcB3A | 
[V:3] c4c4d4 | 
[V:4] F,3G,A,G,F,E,D,4 | 
[V:1] c4c4d4 | 
[V:2] c8z4 | 
[V:3] e8f4 | 
[V:4] C,8z4 | 
[V:1] e4e2A3Bcd | 
[V:2] c3de2d3cAB | 
[V:3] e4e2f4f2 | 
[V:4] C,4C,2D,4D,2 | 
[V:1] e2f4e4d2 | 
[V:2] c2A2B2c2A4 | 
[V:3] e2d2e4f4 | 
[V:4] C,2D,4C,2D,4 | 
[V:1] e8z4 | 
[V:2] z12 | 
[V:3] e2e2e2A3Bcd | 
[V:4] z2A,4A,2C3B, | 
[V:1] z12 | 
[V:2] z4z4a4 | 
[V:3] e2f4e4d2 | 
[V:4] A,G,F,D,A,2G,2F,2F,2 | 
[V:1] e6dcB4 | 
[V:2] g2efgea4^g2 | 
[V:3] e8z4 | 
[V:4] E,8E,4 | 
[V:1] A2c2c2B4A2 | 
[V:2] a4a2g4a2 | 
[V:3] e4e8 | 
[V:4] A,4A,2E,4A,2 | 
[V:1] A4z2A2e3d | 
[V:2] a8z2a2- | 
[V:3] f4f4e4 | 
[V:4] D,2D4D2C3B, | 
[V:1] c2d2B2A2z2A2 | 
[V:2] a2g4e2f2d2 | 
[V:3] e2d4c2d2f2- | 
[V:4] A,2B,2G,2A,2D,2D2 | 
[V:1] e3dc2d2B2A2 | 
[V:2] z2a4g4e2 | 
[V:3] fee4d4c2 | 
[V:4] C3B,A,2B,2G,2A,2 | 
[V:1] z2A4A2A4 | 
[V:2] f2c4c2c4 | 
[V:3] d2e4e2e4 | 
[V:4] z2A,4A,2A,4 | 
[V:1] A2c3Ac2B2A2- | 
[V:2] c3BA2a2g2a2- | 
[V:3] e12 | 
[V:4] A,8E,2A,2 | 
[V:1] A2A2B2c3def | 
[V:2] a2a2g2a2e3e | 
[V:3] z2e3Be3fga | 
[V:4] D,2A,2z2A,4E,2- | 
[V:1] e2d3Gd3GdG | 
[V:2] B3cd4z2g2 | 
[V:3] g3dg3dg3f | 
[V:4] E,2G,3A,B,2G,4 | 
[V:1] c2B4A4^G2 | 
[V:2] c2g3fd2e4 | 
[V:3] ecd3cA2B4 | 
[V:4] A,2G,3A,F,2E,4 | 
[V:1] A12 ||  
[V:2] e12 ||  
[V:3] A12 ||  
[V:4] A,,12 & A,12 ||  
[V:1]  [K:C] [K:clef=treble][M:2/1]z8 | 
[V:2]  [K:C] [K:clef=treble-8][M:2/1]z8 | 
[V:3]  [K:C] [K:clef=treble-8][M:2/1]z8 | 
[V:4]  [K:C] [K:clef=bass][M:2/1]A,4A,4 | 
[V:1] z8 | 
[V:2] z8 | 
[V:3] e4e4 | 
[V:4] G,4E,4 | 
[V:1] z8 | 
[V:2] z8 | 
[V:3] d4B4 | 
[V:4] G,4G,4 | 
[V:1] z8 | 
[V:2] z8 | 
[V:3] d4d4 | 
[V:4] F,4D,4 | 
[V:1] c4c4 | 
[V:2] z8 | 
[V:3] c4A4 | 
[V:4] A,4A,4 | 
[V:1] B4G4 | 
[V:2] e4e4 | 
[V:3] z8 | 
[V:4] G,4E,4 | 
[V:1] B4B4 | 
[V:2] d4B4 | 
[V:3] z8 | 
[V:4] G,4G,4 | 
[V:1] A4F4 | 
[V:2] d4d4 | 
[V:3] z8 | 
[V:4] F,4D,4 | 
[V:1] E8 | 
[V:2] c4B4- | 
[V:3] e4e4 | 
[V:4] z2A,2G,2E,2 | 
[V:1] z4z2G2 | 
[V:2] B2AGd4- | 
[V:3] d4B4 | 
[V:4] G,8 | 
[V:1] F2D2F4 | 
[V:2] d4A4- | 
[V:3] d4d4 | 
[V:4] D,8 | 
[V:1] E8 | 
[V:2] A4e4- | 
[V:3] c4A4 | 
[V:4] z4z2A,2 | 
[V:1] z2e2d2B2 | 
[V:2] e4B4 | 
[V:3] B8 | 
[V:4] G,2E,2G,4- | 
[V:1] dcBAB4 | 
[V:2] g8 | 
[V:3] z2e2d2B2 | 
[V:4] G,8 | 
[V:1] A4z2c2 | 
[V:2] f4e2c2 | 
[V:3] d4A4 | 
[V:4] D,4z2A,2 | 
[V:1] B2G2B2e2 | 
[V:2] g4z2g2- | 
[V:3] z2e2d2B2 | 
[V:4] G,2E,2G,4- | 
[V:1] d2B2d2cB- | 
[V:2] g2g2a2f2 | 
[V:3] d8 | 
[V:4] G,4F,2D,2 | 
[V:1] BAA4^G2 | 
[V:2] e8 | 
[V:3] c2A2B4 | 
[V:4] E,8 | 
[V:1] A8 | 
[V:2] z2f4ed | 
[V:3] A8 | 
[V:4] z2A,4A,2- | 
[V:1] z4z2e2- | 
[V:2] e2d4c2- | 
[V:3] z8 | 
[V:4] A,2B,4A,2- | 
[V:1] e2e4f2- | 
[V:2] cdefg2a2 | 
[V:3] z8 | 
[V:4] A,2G,F,E,2D,2 | 
[V:1] f2e4dc | 
[V:2] d2a4a2 | 
[V:3] z8 | 
[V:4] D2C2A,B,CD | 
[V:1] B2A2c3d | 
[V:2] g2a4a2- | 
[V:3] z8 | 
[V:4] E2A,2z2A,2- | 
[V:1] efg3fed | 
[V:2] a2b4g2 | 
[V:3] z8 | 
[V:4] A,2G,4C2- | 
[V:1] c2d4^c2 | 
[V:2] a2f2e4 | 
[V:3] z8 | 
[V:4] CB,A,G,A,4 | 
[V:1] d8 | 
[V:2] d8 | 
[V:3] z8 | 
[V:4] D,8 | 
[V:1] z8 | 
[V:2] z8 | 
[V:3] e8 | 
[V:4] z2A,4G,2 | 
[V:1] z8 | 
[V:2] z4z2a2- | 
[V:3] e4e4 | 
[V:4] A,2C4B,A, | 
[V:1] z8 | 
[V:2] a2g2a4 | 
[V:3] d4e4- | 
[V:4] B,4A,4 | 
[V:1] z8 | 
[V:2] e4g4 | 
[V:3] e2e2B4 | 
[V:4] C4G,3F, | 
[V:1] z8 | 
[V:2] f2e4d2 | 
[V:3] d4c2B2- | 
[V:4] D,2A,3G,G,2 | 
[V:1] z8 | 
[V:2] c4B4 | 
[V:3] B2A4^G2 | 
[V:4] A,4E,4 | 
[V:1] z8 | 
[V:2] z2A2c2de | 
[V:3] A8 | 
[V:4] z4A,4- | 
[V:1] z8 | 
[V:2] f2e4a2- | 
[V:3] c4c4 | 
[V:4] A,4A,4 | 
[V:1] z8 | 
[V:2] agg2a2e2 | 
[V:3] d4e4- | 
[V:4] B,4A,4 | 
[V:1] z8 | 
[V:2] g4a2g2- | 
[V:3] e4f2e2- | 
[V:4] G,4F,2C,2 | 
[V:1] z8 | 
[V:2] gfede4 | 
[V:3] edd4^c2 | 
[V:4] E,2F,2G,2A,2 | 
[V:1] d8 | 
[V:2] d8 | 
[V:3] d8- | 
[V:4] D,8- | 
[V:1] f4f4 | 
[V:2] z8 | 
[V:3] d8 | 
[V:4] D,8 | 
[V:1] e4c4 | 
[V:2] a8 | 
[V:3] z8 | 
[V:4] z8 | 
[V:1] d4e4 | 
[V:2] f4g4 | 
[V:3] z8 | 
[V:4] z8 | 
[V:1] A8 | 
[V:2] a4f4 | 
[V:3] z8 | 
[V:4] z8 | 
[V:1] z4c4 | 
[V:2] g4a4 | 
[V:3] z8 | 
[V:4] z8 | 
[V:1] d6cB | 
[V:2] d8 | 
[V:3] z8 | 
[V:4] z8 | 
[V:1] A2d3cBA | 
[V:2] z4f4 | 
[V:3] z8 | 
[V:4] z8 | 
[V:1] G4d4 | 
[V:2] g6fe | 
[V:3] z8 | 
[V:4] z8 | 
[V:1] d4d2e2- | 
[V:2] d2g3fed | 
[V:3] z8 | 
[V:4] z8 | 
[V:1] edc4B2 | 
[V:2] c2e2d4 | 
[V:3] z8 | 
[V:4] z8 | 
[V:1] c8 | 
[V:2] c8 | 
[V:3] e4e4 | 
[V:4] A,4A,4 | 
[V:1] z8 | 
[V:2] z8 | 
[V:3] e3dcBd2- | 
[V:4] G,2A,3G,F,E, | 
[V:1] z8 | 
[V:2] z8 | 
[V:3] d2c4B2 | 
[V:4] G,2C,2D,4 | 
[V:1] z4c4 | 
[V:2] z8 | 
[V:3] c8 | 
[V:4] C,2F,4E,2 | 
[V:1] d4e4 | 
[V:2] z8 | 
[V:3] z4c4 | 
[V:4] D,4C,4 | 
[V:1] A2d2c2B2- | 
[V:2] z8 | 
[V:3] d4e4 | 
[V:4] F,4E,4 | 
[V:1] BAA4^G2 | 
[V:2] z8 | 
[V:3] A4B4 | 
[V:4] F,4E,4 | 
[V:1] A8 | 
[V:2] z8 | 
[V:3] A8 | 
[V:4] z8 | 
[V:1] c8 | 
[V:2] a8 | 
[V:3] e8 | 
[V:4] A,8 | 
[V:1] c4c4 | 
[V:2] a4a4- | 
[V:3] e4e4 | 
[V:4] A,4A,4 | 
[V:1] d6cB | 
[V:2] a4g3f | 
[V:3] d4B4 | 
[V:4] D,4G,4 | 
[V:1] c2d2B2e2- | 
[V:2] e2d2g4 | 
[V:3] z2d4B2 | 
[V:4] A,2B,2G,4 | 
[V:1] e2d4B2 | 
[V:2] z2G4B2 | 
[V:3] c2d2B2e2- | 
[V:4] A,2B,2G,4 | 
[V:1] c2d2B2e2- | 
[V:2] A2G2B2c2 | 
[V:3] edd2e4 | 
[V:4] A,2B,2E,2C,2 | 
[V:1] e2d2e2f2- | 
[V:2] A8- | 
[V:3] f4e2d2 | 
[V:4] D,4z2D,2- | 
[V:1] f2e3dd2 | 
[V:2] A8 | 
[V:3] e4f4 | 
[V:4] D,2C,2D,4 | 
[V:1] e4z4 | 
[V:2] z4a4 | 
[V:3] e8 | 
[V:4] A,8 | 
[V:1] e8 | 
[V:2] g4g4 | 
[V:3] e8 | 
[V:4] E,8 | 
[V:1] c4c4 | 
[V:2] a8 | 
[V:3] e4e4 | 
[V:4] A,4A,4 | 
[V:1] f4f4 | 
[V:2] a4a4 | 
[V:3] A4A4 | 
[V:4] F,8 | 
[V:1] e8 | 
[V:2] g4g2a2- | 
[V:3] c3BG2c2- | 
[V:4] C,8 | 
[V:1] c2A2B4 | 
[V:2] agf4e2 | 
[V:3] c2c4B2 | 
[V:4] F,4G,4 | 
[V:1] A8 | 
[V:2] f8 | 
[V:3] c8 | 
[V:4] F,6E,D, | 
[V:1] d8 | 
[V:2] a8 | 
[V:3] f8 | 
[V:4] D,8- | 
[V:1] d4d4 | 
[V:2] a4a4 | 
[V:3] f4f4 | 
[V:4] D,8 | 
[V:1] c4A2dc | 
[V:2] a8 | 
[V:3] e4f3e | 
[V:4] A,4F,2D,2 | 
[V:1] BAA4^G2 | 
[V:2] g2e3de2 | 
[V:3] d2c2B4 | 
[V:4] G,2A,2E,4 | 
[V:1] A4z4 | 
[V:2] c2d3cc2 | 
[V:3] A8- | 
[V:4] F,8 | 
[V:1] F4F4 | 
[V:2] d8 | 
[V:3] A8 | 
[V:4] D,8 | 
[V:1] E2F2E2F2- | 
[V:2] z8 | 
[V:3] z8 | 
[V:4] z2D,2C,2D,2- | 
[V:1] F2EDE2F2- | 
[V:2] a8 | 
[V:3] A8 | 
[V:4] D,2D,2C,2D,2- | 
[V:1] F2E4D2 | 
[V:2] a4a4 | 
[V:3] A4A4 | 
[V:4] D,2E,2F,4 | 
[V:1] E8 | 
[V:2] g8- | 
[V:3] B8 | 
[V:4] E,8 | 
[V:1] e8 | 
[V:2] g8 | 
[V:3] B8 | 
[V:4] E,4E,4 | 
[V:1] e4e4 | 
[V:2] g6g2 | 
[V:3] c4c4 | 
[V:4] C,8 | 
[V:1] d4c4 | 
[V:2] g3fedf2- | 
[V:3] B2B4A2 | 
[V:4] G,4A,4 | 
[V:1] B4A4 | 
[V:2] f2e4d2 | 
[V:3] B2G2A4 | 
[V:4] E,4F,4 | 
[V:1] [M:3/1]G4c4B4 | 
[V:2] [M:3/1]e8e4 | 
[V:3] [M:3/1]B4A4B4 | 
[V:4] [M:3/1]E,4A,4G,4 | 
[V:1] A4d4c4 | 
[V:2] f6e2e4 | 
[V:3] c4d4e4 | 
[V:4] F,4D,4A,4 | 
[V:1] f4e3cd4 | 
[V:2] a8^g4 | 
[V:3] f3ec2e4d2 | 
[V:4] F,4C4B,4 | 
[V:1] c8z4 | 
[V:2] a8z4 | 
[V:3] e8z4 | 
[V:4] A,8z4 | 
[V:1] c8c4 | 
[V:2] a8a4 | 
[V:3] f8e4 | 
[V:4] F,6G,2A,4 | 
[V:1] d4A4z4 | 
[V:2] f6e2d4 | 
[V:3] d4f8 | 
[V:4] D,8F,4- | 
[V:1] c4c4d4 | 
[V:2] c8f4- | 
[V:3] f4e4d4 | 
[V:4] F,2G,2A,4D,4 | 
[V:1] A4c8 | 
[V:2] f2g2a8 | 
[V:3] c6B2c2d2 | 
[V:4] F,6G,2A,4 | 
[V:1] B4e8 | 
[V:2] g4e4g4 | 
[V:3] e4B4e4 | 
[V:4] E,8E,4 | 
[V:1] d4c2B4A2 | 
[V:2] a4g4a4 | 
[V:3] A4e4c4 | 
[V:4] F,4E,4F,4 | 
[V:1] A8^G4 | 
[V:2] f4e8 | 
[V:3] d4B8 | 
[V:4] D,4E,8 | 
[V:1] A2c4d2e4 | 
[V:2] c6B2G4 | 
[V:3] A6B2c4 | 
[V:4] F,8E,4 | 
[V:1] f4e6d2 | 
[V:2] A4c4d4 | 
[V:3] d4c4f4 | 
[V:4] D,4A,4B,4 | 
[V:1] d8^c4 | 
[V:2] B4A8 | 
[V:3] g4e8 | 
[V:4] G,4A,8 | 
[V:1] d12 |]  
[V:2] A12 & a12 |]  
[V:3] d12 |]  
[V:4] D,12 |]  



